images/background-mobile.svg

<svg width="375" height="812" viewBox="0 0 375 812" fill="none" xmlns="http://www.w3.org/2000/svg">
<g clip-path="url(#clip0)">
<rect width="375" height="812" fill="#202024"/>
<circle cx="278" cy="99" r="300" transform="rotate(-180 278 99)" fill="url(#paint0_radial)"/>
<circle cx="98" cy="99" r="300" transform="rotate(-180 98 99)" fill="url(#paint1_radial)"/>
<mask id="mask0" style="mask-type:alpha" maskUnits="userSpaceOnUse" x="0" y="0" width="375" height="812">
<rect width="375" height="812" fill="#202024"/>
</mask>
<g mask="url(#mask0)">
<path d="M375 168.101V-310.699L187.478 -418.486L-0.0446777 -310.699V168.101L187.478 275.894L375 168.101Z" fill="url(#paint2_linear)"/>
<g style="mix-blend-mode:luminosity" opacity="0.4">
<path d="M1.83662 61.3931V168.797L95.1275 222.505L188.418 168.797V61.3931L95.1275 7.68578L1.83662 61.3931Z" fill="url(#paint3_linear)"/>
<path d="M1.83662 -46.0166V61.3877L95.1275 115.095L188.418 61.3877V-46.0166L95.1275 -99.7239L1.83662 -46.0166Z" fill="url(#paint4_linear)"/>
<path d="M281.709 -99.6961V7.70821L188.418 61.4155L95.1274 7.70821V-99.6961L188.418 -153.403L281.709 -99.6961Z" fill="url(#paint5_linear)"/>
<path d="M188.418 168.797V61.3927L281.709 7.68539L375 61.3927V168.797L281.709 222.504L188.418 168.797Z" fill="url(#paint6_linear)"/>
<path d="M375 -46.0166V61.3877L281.709 115.095L188.418 61.3877V-46.0166L281.709 -99.7239L375 -46.0166Z" fill="url(#paint7_linear)"/>
<path d="M281.709 222.527V115.123L188.418 61.4155L95.1274 115.123L95.1274 222.527L188.418 276.234L281.709 222.527Z" fill="url(#paint8_linear)"/>
</g>
</g>
</g>
<defs>
<radialGradient id="paint0_radial" cx="0" cy="0" r="1" gradientUnits="userSpaceOnUse" gradientTransform="translate(278 99) rotate(90) scale(300)">
<stop stop-color="#FFC323"/>
<stop offset="1" stop-color="#121214" stop-opacity="0"/>
</radialGradient>
<radialGradient id="paint1_radial" cx="0" cy="0" r="1" gradientUnits="userSpaceOnUse" gradientTransform="translate(98 99) rotate(90) scale(300)">
<stop stop-color="#FF3D6E"/>
<stop offset="1" stop-color="#121214" stop-opacity="0"/>
</radialGradient>
<linearGradient id="paint2_linear" x1="-67.9497" y1="58.9385" x2="436.115" y2="232.357" gradientUnits="userSpaceOnUse">
<stop stop-color="#FF008E"/>
<stop offset="1" stop-color="#FFCD1E"/>
</linearGradient>
<linearGradient id="paint3_linear" x1="95.1275" y1="217.565" x2="2.23833" y2="59.047" gradientUnits="userSpaceOnUse">
<stop stop-color="#8257E5"/>
<stop offset="1" stop-color="#FF008E" stop-opacity="0"/>
</linearGradient>
<linearGradient id="paint4_linear" x1="95.1275" y1="110.155" x2="2.23831" y2="-48.3627" gradientUnits="userSpaceOnUse">
<stop stop-color="#8257E5"/>
<stop offset="1" stop-color="#FF008E" stop-opacity="0"/>
</linearGradient>
<linearGradient id="paint5_linear" x1="95.1275" y1="-105.732" x2="281.421" y2="6.68569" gradientUnits="userSpaceOnUse">
<stop stop-color="#FF008E" stop-opacity="0"/>
<stop offset="1" stop-color="#FFCD1E"/>
</linearGradient>
<linearGradient id="paint6_linear" x1="375" y1="174.833" x2="188.706" y2="62.4152" gradientUnits="userSpaceOnUse">
<stop stop-color="#FF008E" stop-opacity="0"/>
<stop offset="1" stop-color="#FFCD1E"/>
</linearGradient>
<linearGradient id="paint7_linear" x1="281.709" y1="110.155" x2="374.598" y2="-48.3627" gradientUnits="userSpaceOnUse">
<stop stop-color="#8257E5"/>
<stop offset="1" stop-color="#FF008E" stop-opacity="0"/>
</linearGradient>
<linearGradient id="paint8_linear" x1="188.418" y1="66.3552" x2="281.307" y2="224.873" gradientUnits="userSpaceOnUse">
<stop stop-color="#8257E5"/>
<stop offset="1" stop-color="#FF008E" stop-opacity="0"/>
</linearGradient>
<clipPath id="clip0">
<rect width="375" height="812" fill="white"/>
</clipPath>
</defs>
</svg>

<svg width="375" height="812" fill="none" xmlns="http://www.w3.org/2000/svg"><g clip-path="url(#clip0)"><path fill="#202024" d="M0 0h375v812H0z"/><circle cx="278" cy="99" r="300" transform="rotate(-180 278 99)" fill="url(#paint0_radial)"/><circle cx="98" cy="99" r="300" transform="rotate(-180 98 99)" fill="url(#paint1_radial)"/><mask id="a" style="mask-type:alpha" maskUnits="userSpaceOnUse" x="0" y="0" width="375" height="812"><path fill="#202024" d="M0 0h375v812H0z"/></mask><g mask="url(#a)"><path d="M375 168.101v-478.8L187.478-418.486-.045-310.699v478.8l187.523 107.793L375 168.101z" fill="url(#paint2_linear)"/><g style="mix-blend-mode:luminosity" opacity=".4"><path d="M1.837 61.393v107.404l93.29 53.708 93.291-53.708V61.393L95.128 7.686 1.837 61.393z" fill="url(#paint3_linear)"/><path d="M1.837-46.017V61.388l93.29 53.707 93.291-53.707V-46.017l-93.29-53.707L1.837-46.017z" fill="url(#paint4_linear)"/><path d="M281.709-99.696V7.708l-93.291 53.708-93.29-53.708V-99.696l93.29-53.707 93.291 53.707z" fill="url(#paint5_linear)"/><path d="M188.418 168.797V61.393l93.291-53.708L375 61.393v107.404l-93.291 53.707-93.291-53.707z" fill="url(#paint6_linear)"/><path d="M375-46.017V61.388l-93.291 53.707-93.291-53.707V-46.017l93.291-53.707L375-46.017z" fill="url(#paint7_linear)"/><path d="M281.709 222.527V115.123l-93.291-53.708-93.29 53.708v107.404l93.29 53.707 93.291-53.707z" fill="url(#paint8_linear)"/></g></g></g><defs><linearGradient id="paint2_linear" x1="-67.95" y1="58.938" x2="436.115" y2="232.357" gradientUnits="userSpaceOnUse"><stop stop-color="#FF008E"/><stop offset="1" stop-color="#FFCD1E"/></linearGradient><linearGradient id="paint3_linear" x1="95.127" y1="217.565" x2="2.238" y2="59.047" gradientUnits="userSpaceOnUse"><stop stop-color="#8257E5"/><stop offset="1" stop-color="#FF008E" stop-opacity="0"/></linearGradient><linearGradient id="paint4_linear" x1="95.127" y1="110.155" x2="2.238" y2="-48.363" gradientUnits="userSpaceOnUse"><stop stop-color="#8257E5"/><stop offset="1" stop-color="#FF008E" stop-opacity="0"/></linearGradient><linearGradient id="paint5_linear" x1="95.127" y1="-105.732" x2="281.421" y2="6.686" gradientUnits="userSpaceOnUse"><stop stop-color="#FF008E" stop-opacity="0"/><stop offset="1" stop-color="#FFCD1E"/></linearGradient><linearGradient id="paint6_linear" x1="375" y1="174.833" x2="188.706" y2="62.415" gradientUnits="userSpaceOnUse"><stop stop-color="#FF008E" stop-opacity="0"/><stop offset="1" stop-color="#FFCD1E"/></linearGradient><linearGradient id="paint7_linear" x1="281.709" y1="110.155" x2="374.598" y2="-48.363" gradientUnits="userSpaceOnUse"><stop stop-color="#8257E5"/><stop offset="1" stop-color="#FF008E" stop-opacity="0"/></linearGradient><linearGradient id="paint8_linear" x1="188.418" y1="66.355" x2="281.307" y2="224.873" gradientUnits="userSpaceOnUse"><stop stop-color="#8257E5"/><stop offset="1" stop-color="#FF008E" stop-opacity="0"/></linearGradient><radialGradient id="paint0_radial" cx="0" cy="0" r="1" gradientUnits="userSpaceOnUse" gradientTransform="matrix(0 300 -300 0 278 99)"><stop stop-color="#FFC323"/><stop offset="1" stop-color="#121214" stop-opacity="0"/></radialGradient><radialGradient id="paint1_radial" cx="0" cy="0" r="1" gradientUnits="userSpaceOnUse" gradientTransform="matrix(0 300 -300 0 98 99)"><stop stop-color="#FF3D6E"/><stop offset="1" stop-color="#121214" stop-opacity="0"/></radialGradient><clipPath id="clip0"><path fill="#fff" d="M0 0h375v812H0z"/></clipPath></defs></svg>
